frontend/public/svg/interface/message-2.svg

<svg width="158" height="133" viewBox="0 0 158 133" fill="none" xmlns="http://www.w3.org/2000/svg">
<g clip-path="url(#clip0)">
<path d="M8.05493 128.783C12.475 131.352 17.4859 132.6 23.3751 132.6H23.4161C34.083 132.59 44.751 132.588 55.4201 132.597C60.6955 132.597 66.0111 132.598 71.3673 132.6C86.2654 132.6 101.388 132.587 116.325 132.523C124.912 132.588 133.497 132.191 142.043 131.335C150.983 130.329 154.768 126.179 155.106 117.013C155.943 94.3686 156.639 71.7403 157.176 49.7552C157.371 41.7641 152.256 36.0852 144.147 35.2904C140.763 34.9592 137.682 34.8156 134.743 34.8091C129.502 34.8221 118.88 34.8646 107.326 34.9109C91.1851 34.9761 73.0083 35.049 65.4498 35.0568C65.9244 34.2829 66.3733 33.5569 66.8006 32.871C68.0247 30.9008 69.0807 29.1985 70.0273 27.4389C70.6657 26.253 71.3132 25.0701 71.9614 23.8875C74.4936 19.4633 76.7763 14.9008 78.7984 10.2211C79.7802 7.82321 79.3157 3.94384 77.805 1.91755C76.5587 0.247879 72.5438 0.124964 70.2449 0.682389C66.3016 1.65282 62.4997 3.12761 58.9327 5.06975C48.9583 10.4921 38.868 16.0948 29.1073 21.5133C22.5276 25.1643 15.7206 28.9454 9.01257 32.6342C4.31556 35.2166 2.21338 39.1321 2.1971 45.3277C2.15866 59.5502 1.93977 74.0137 1.7287 87.997C1.64184 93.7629 1.55864 99.5282 1.47916 105.293C1.46418 106.474 1.43685 107.655 1.41014 108.836C1.33652 112.051 1.26094 115.375 1.42771 118.645C1.64399 122.943 3.87455 126.353 8.05493 128.783ZM59.3731 20.5519C56.5673 25.2727 53.6663 30.1538 50.7739 34.9275C50.6266 35.1707 50.4749 35.4133 50.3244 35.6552C48.9323 37.8869 47.3544 40.4145 49.0306 43.5615C50.886 47.0398 54.2794 47.5165 57.3692 47.495C71.3569 47.465 85.3455 47.4234 99.3335 47.3695C110.749 47.3313 122.164 47.2958 133.58 47.2632C134.835 47.258 136.101 47.3229 137.335 47.3829C138.73 47.452 140.171 47.5235 141.599 47.502C143.944 47.4368 144.987 48.5542 145.209 51.2527C145.229 51.4494 145.237 51.6472 145.234 51.8448L144.721 70.3758C144.356 83.5187 143.994 96.6615 143.634 109.806C143.564 112.391 143.535 115.087 143.55 117.825C143.563 120.461 142.646 121.462 140.163 121.516C135.537 121.619 130.842 121.792 126.299 121.96C120.554 122.171 114.613 122.391 108.775 122.467C90.2086 122.711 73.3738 122.793 57.3047 122.717C45.7675 122.662 33.315 122.397 19.2352 121.904C12.847 121.681 11.294 120.044 11.3207 113.565C11.3519 105.892 11.2678 63.1367 10.6346 49.2401C10.4965 46.2215 11.1349 44.9606 13.4815 43.6195C24.2878 37.4415 35.2218 31.0698 45.7936 24.9081C50.6048 22.1047 55.417 19.304 60.2303 16.5058C60.8364 16.1732 61.4641 15.881 62.1092 15.6323L62.3698 15.524C61.3682 17.1992 60.3694 18.8755 59.3731 20.5519Z" fill="black"/>
<path d="M42.2683 74.3984H42.2032C40.3058 74.5086 38.5283 75.3627 37.2567 76.7761C35.7539 78.3096 34.9187 80.3763 34.9337 82.5238C35.0496 86.416 38.2984 89.3407 42.4976 89.3407H42.5354C46.4767 89.3244 49.5131 86.7146 49.5978 83.2716C49.6545 80.9898 47.979 78.2574 46.2937 76.5656C45.4833 75.7519 43.8898 74.3984 42.2683 74.3984Z" fill="black"/>
<path d="M108.434 91.0887C108.5 91.0887 108.569 91.0926 108.637 91.0926C110.242 91.0809 111.778 90.4433 112.92 89.3154C113.497 88.7586 113.956 88.0904 114.267 87.3517C114.579 86.613 114.739 85.8189 114.735 85.017C114.683 81.5525 110.38 77.8454 106.362 77.7998C104.9 77.8415 103.512 78.4563 102.499 79.5132C101.486 80.57 100.928 81.9828 100.947 83.4471C100.896 87.1672 104.604 90.9538 108.434 91.0887Z" fill="black"/>
<path d="M75.3342 89.7438H75.4736C77.613 89.6467 79.6299 88.715 81.0924 87.149C81.6494 86.6033 82.0924 85.952 82.3966 85.2336C82.7002 84.5144 82.8591 83.7432 82.863 82.9628C82.8259 82.1804 82.6344 81.4124 82.2989 80.7044C81.9634 79.9964 81.4911 79.362 80.9087 78.8385C79.5849 77.6219 77.8364 76.9745 76.0404 77.0352C75.1029 77.0534 74.1792 77.2575 73.3225 77.6369C72.4652 78.0164 71.6926 78.5634 71.0496 79.2453C70.4796 79.8705 70.0399 80.6033 69.7565 81.4013C69.4731 82.1987 69.3513 83.0449 69.3988 83.8899C69.4562 85.4389 70.1031 86.9071 71.206 87.9953C72.3089 89.0834 73.7857 89.7086 75.3342 89.7438Z" fill="black"/>
</g>
<defs>
<clipPath id="clip0">
<rect width="157" height="133" fill="white" transform="translate(0.777344)"/>
</clipPath>
</defs>
</svg>

<svg xmlns="http://www.w3.org/2000/svg" width="158" height="133" fill="none" viewBox="0 0 158 133"><g fill="#000" clip-path="url(#a)"><path d="M8.055 128.783c4.42 2.569 9.43 3.817 15.32 3.817h.041q16-.016 32.004-.003l15.947.003c14.898 0 30.021-.013 44.958-.077a240 240 0 0 0 25.718-1.188c8.94-1.006 12.725-5.156 13.063-14.322a5398 5398 0 0 0 2.07-67.258c.195-7.99-4.92-13.67-13.029-14.465a98 98 0 0 0-9.404-.48c-5.241.012-15.863.055-27.417.1-16.14.066-34.318.139-41.876.147.474-.774.923-1.5 1.35-2.186 1.225-1.97 2.28-3.673 3.227-5.432a535 535 0 0 1 1.934-3.552 137 137 0 0 0 6.837-13.666c.982-2.398.518-6.277-.993-8.303C76.559.248 72.544.125 70.245.682A47.3 47.3 0 0 0 58.933 5.07c-9.975 5.422-20.065 11.025-29.826 16.443-6.58 3.651-13.386 7.432-20.094 11.121-4.697 2.583-6.8 6.498-6.816 12.694C2.16 59.55 1.94 74.014 1.73 87.997q-.13 8.649-.25 17.296c-.015 1.181-.042 2.362-.069 3.543-.073 3.215-.15 6.539.018 9.809.216 4.298 2.447 7.708 6.627 10.138M59.373 20.552c-2.806 4.72-5.707 9.602-8.6 14.376q-.22.364-.449.727c-1.392 2.232-2.97 4.76-1.293 7.907 1.855 3.478 5.248 3.955 8.338 3.933q20.982-.045 41.965-.125 17.122-.058 34.246-.107c1.255-.005 2.521.06 3.755.12 1.395.069 2.836.14 4.264.119 2.345-.065 3.388 1.052 3.61 3.75q.03.296.025.593l-.513 18.53q-.547 19.716-1.087 39.431c-.07 2.585-.099 5.281-.084 8.019.013 2.636-.904 3.637-3.387 3.691-4.626.103-9.321.276-13.864.444-5.745.211-11.686.431-17.524.507-18.566.244-35.401.326-51.47.25-11.538-.055-23.99-.32-38.07-.813-6.388-.223-7.941-1.86-7.914-8.339.03-7.673-.053-50.428-.686-64.325-.139-3.019.5-4.28 2.847-5.62 10.806-6.178 21.74-12.55 32.312-18.712q7.216-4.205 14.436-8.402a15.5 15.5 0 0 1 1.88-.874l.26-.108q-1.502 2.512-2.997 5.028"/><path d="M42.268 74.398h-.065a7.22 7.22 0 0 0-4.946 2.378 8.13 8.13 0 0 0-2.323 5.748c.116 3.892 3.364 6.817 7.564 6.817h.037c3.942-.017 6.978-2.626 7.063-6.07.056-2.281-1.619-5.014-3.304-6.705-.81-.814-2.404-2.168-4.026-2.168m66.166 16.691.203.004a6.16 6.16 0 0 0 4.283-1.778 5.9 5.9 0 0 0 1.347-1.963 5.9 5.9 0 0 0 .468-2.335c-.052-3.465-4.355-7.172-8.373-7.217a5.57 5.57 0 0 0-3.863 1.713 5.58 5.58 0 0 0-1.552 3.934c-.051 3.72 3.657 7.507 7.487 7.642m-33.1-1.345h.14a8.2 8.2 0 0 0 5.618-2.595 5.9 5.9 0 0 0 1.771-4.186 5.93 5.93 0 0 0-1.954-4.124 6.85 6.85 0 0 0-4.869-1.804 7.05 7.05 0 0 0-4.99 2.21 6.36 6.36 0 0 0-1.651 4.645 6.08 6.08 0 0 0 1.807 4.105 6.07 6.07 0 0 0 4.128 1.749"/></g><defs><clipPath id="a"><path fill="#fff" d="M.777 0h157v133h-157z"/></clipPath></defs></svg>
